X:24
T:I Am a Brisk and Sprightly Lad
N:page 18 on manuscript
M:C
Q:200
L:1/8
K:F
c2 | F2 c2 A2 d2 | B2 G2 G2 c2 | F2 c2 A2 d2 | B4 G2 c2 | F2 c2 A2 d2 | B2 G2 G2 c2 | F2 B2 A2 c2 | d4 B4 | f6 d2 | e4 c4 |
f6 d2 | e4 c2 z2 | f2 A2 A2 f2 | d2 B2 B2 d2 | c2 B2 A2 G2 | A4 F2 c2 | f2 A2 A2 f2 | d2 B2 B2 d2 | c2 B2 A2 G2 | A4 F2 ||

